src/pos-icons/fruit-watermelon.svg

<svg height="24" viewBox="0 0 24 24" width="24" xmlns="http://www.w3.org/2000/svg"><path d="m16.4 16.4c3.4-3.4 3.4-8.9 0-12.2l-12.2 12.2c3.3 3.4 8.8 3.4 12.2 0m-.4-9.4c.6 0 1 .4 1 1s-.4 1-1 1-1-.4-1-1 .4-1 1-1m0 4c.6 0 1 .4 1 1s-.4 1-1 1-1-.4-1-1 .4-1 1-1m-4 0c.6 0 1 .4 1 1s-.4 1-1 1-1-.4-1-1 .4-1 1-1m0 4c.6 0 1 .4 1 1s-.4 1-1 1-1-.4-1-1 .4-1 1-1m-4 2c-.6 0-1-.4-1-1s.4-1 1-1 1 .4 1 1-.4 1-1 1m10.6 1.6c-4.6 4.6-12 4.6-16.6 0l1.4-1.4c3.8 3.8 9.9 3.8 13.7 0s3.8-9.9 0-13.7l1.5-1.5c4.5 4.6 4.5 12 0 16.6z"/></svg>

<?xml version="1.0" encoding="UTF-8"?><!DOCTYPE svg PUBLIC "-//W3C//DTD SVG 1.1//EN" "http://www.w3.org/Graphics/SVG/1.1/DTD/svg11.dtd"><svg xmlns="http://www.w3.org/2000/svg" xmlns:xlink="http://www.w3.org/1999/xlink" version="1.1" id="mdi-fruit-watermelon" width="24" height="24" viewBox="0 0 24 24"><path d="M16.4 16.4C19.8 13 19.8 7.5 16.4 4.2L4.2 16.4C7.5 19.8 13 19.8 16.4 16.4M16 7C16.6 7 17 7.4 17 8C17 8.6 16.6 9 16 9S15 8.6 15 8C15 7.4 15.4 7 16 7M16 11C16.6 11 17 11.4 17 12C17 12.6 16.6 13 16 13S15 12.6 15 12C15 11.4 15.4 11 16 11M12 11C12.6 11 13 11.4 13 12C13 12.6 12.6 13 12 13S11 12.6 11 12C11 11.4 11.4 11 12 11M12 15C12.6 15 13 15.4 13 16C13 16.6 12.6 17 12 17S11 16.6 11 16C11 15.4 11.4 15 12 15M8 17C7.4 17 7 16.6 7 16C7 15.4 7.4 15 8 15S9 15.4 9 16C9 16.6 8.6 17 8 17M18.6 18.6C14 23.2 6.6 23.2 2 18.6L3.4 17.2C7.2 21 13.3 21 17.1 17.2C20.9 13.4 20.9 7.3 17.1 3.5L18.6 2C23.1 6.6 23.1 14 18.6 18.6Z" /></svg>
